symbolic/24x24/actions/kmouth-phrase-new.svg

<svg xmlns="http://www.w3.org/2000/svg" width="24" height="24"><defs><style id="current-color-scheme" type="text/css"></style></defs><path style="fill:currentColor;color:#323a41" d="M2.5 2S1 2 1 3.5v4C1 9 2.5 9 2.5 9H3l1.5 2L6 9h3.5S11 9 11 7.5v-4C11 2 9.5 2 9.5 2zm9.5 8v2h-2v1h2v2h1v-2h2v-1h-2v-2z" transform="translate(4 4)"/></svg>

<svg xmlns="http://www.w3.org/2000/svg" width="24" height="24" version="1.1">
 <defs>
  <style id="current-color-scheme" type="text/css">
   .ColorScheme-Text { color:#323a41; } .ColorScheme-Highlight { color:#4285f4; } .ColorScheme-NeutralText { color:#ff9800; } .ColorScheme-PositiveText { color:#4caf50; } .ColorScheme-NegativeText { color:#f44336; }
  </style>
 </defs>
 <g transform="translate(4,4)">
  <path style="fill:currentColor" class="ColorScheme-Text" d="M 2.5,2 C 2.5,2 1,2 1,3.5 V 7.5 C 1,9 2.5,9 2.5,9 H 3 L 4.5,11 6,9 H 9.5 C 9.5,9 11,9 11,7.5 V 3.5 C 11,2 9.5,2 9.5,2 Z M 12,10 V 12 H 10 V 13 H 12 V 15 H 13 V 13 H 15 V 12 H 13 V 10 Z"/>
 </g>
</svg>
